src/packages/tokens/img/vai.svg

<svg width="24" height="24" viewBox="0 0 24 24" fill="none" xmlns="http://www.w3.org/2000/svg">
<g clip-path="url(#clip0_8_2960)">
<path d="M12.0008 24.0016C18.6286 24.0016 24.0016 18.6286 24.0016 12.0008C24.0016 5.37293 18.6286 0 12.0008 0C5.37293 0 0 5.37293 0 12.0008C0 18.6286 5.37293 24.0016 12.0008 24.0016Z" fill="url(#paint0_linear_8_2960)"/>
<path d="M8.11367 11.7731H17.8396L18.4958 10.357H16.5412L16.5538 10.3303L17.7799 7.6708C17.9432 7.31756 17.7878 6.89681 17.4361 6.73667C17.0797 6.57339 16.6621 6.72882 16.4988 7.08049L14.9995 10.3303L14.987 10.357H9.0164L9.00384 10.3303L7.50453 7.08049C7.34125 6.72725 6.9205 6.57182 6.56726 6.73667C6.21402 6.89838 6.05859 7.31756 6.22344 7.6708L7.44958 10.3303L7.46214 10.357H6.14651L5.49341 11.7731H8.11681H8.11367Z" fill="white"/>
<path d="M5.49023 14.599H9.41671L9.4434 14.6587L11.3572 18.8143C11.4734 19.0655 11.7246 19.2241 11.9977 19.2241C12.2709 19.2241 12.5237 19.0655 12.6383 18.8143L14.5552 14.6587L14.5835 14.599H17.838L18.4942 13.186H6.14334L5.49023 14.599ZM13.0009 14.6587L11.9993 16.8331L10.9977 14.6587L10.971 14.599H13.0308L13.0025 14.6587H13.0009Z" fill="white"/>
</g>
<defs>
<linearGradient id="paint0_linear_8_2960" x1="23.6945" y1="18.9936" x2="-5.75234" y2="1.28164" gradientUnits="userSpaceOnUse">
<stop stop-color="#5433FF"/>
<stop offset="0.5" stop-color="#20BDFF"/>
<stop offset="1" stop-color="#5CFFA2"/>
</linearGradient>
<clipPath id="clip0_8_2960">
<rect width="24" height="24" fill="white"/>
</clipPath>
</defs>
</svg>

<svg xmlns="http://www.w3.org/2000/svg" width="24" height="24" fill="none" xmlns:v="https://vecta.io/nano"><g clip-path="url(#B)"><path d="M12.001 24.002c6.628 0 12.001-5.373 12.001-12.001S18.629 0 12.001 0 0 5.373 0 12.001s5.373 12.001 12.001 12.001z" fill="url(#A)"/><g fill="#fff"><path d="M8.114 11.773h9.726l.656-1.416h-1.955l.013-.027 1.226-2.659c.163-.353.008-.774-.344-.934a.71.71 0 0 0-.937.344L15 10.33l-.012.027H9.016l-.013-.027-1.499-3.25c-.163-.353-.584-.509-.937-.344a.7.7 0 0 0-.344.934l1.227 2.66.013.027H6.147l-.653 1.416h2.623-.003zM5.49 14.599h3.926l.027.06 1.914 4.156c.116.251.367.41.64.41s.526-.159.641-.41l1.917-4.156.028-.06h3.255l.656-1.413H6.143l-.653 1.413zm7.511.06l-1.002 2.174-1.002-2.174-.027-.06h2.06l-.028.06H13z"/></g></g><defs><linearGradient id="A" x1="23.695" y1="18.994" x2="-5.752" y2="1.282" gradientUnits="userSpaceOnUse"><stop stop-color="#5433ff"/><stop offset=".5" stop-color="#20bdff"/><stop offset="1" stop-color="#5cffa2"/></linearGradient><clipPath id="B"><path fill="#fff" d="M0 0h24v24H0z"/></clipPath></defs></svg>
